build/service/PlusCircleSolid.svg

<svg xmlns="http://www.w3.org/2000/svg" fill="none" viewBox="0 0 24 24" focusable="false"><path d="M0 0H24V24H0z"/><path fill="#74767B" fill-rule="evenodd" d="M3 12C3 7.02944 7.02944 3 12 3C16.9706 3 21 7.02944 21 12C21 16.9706 16.9706 21 12 21C7.02944 21 3 16.9706 3 12ZM12 7C12.359 7 12.65 7.29102 12.65 7.65L12.65 11.35L16.35 11.35C16.709 11.35 17 11.641 17 12C17 12.359 16.709 12.65 16.35 12.65L12.65 12.65L12.65 16.35C12.65 16.709 12.359 17 12 17C11.641 17 11.35 16.709 11.35 16.35L11.35 12.65L7.65 12.65C7.29101 12.65 7 12.359 7 12C7 11.641 7.29101 11.35 7.65 11.35L11.35 11.35L11.35 7.65C11.35 7.29102 11.641 7 12 7Z"/></svg>

<svg xmlns="http://www.w3.org/2000/svg" fill="none" viewBox="0 0 24 24" focusable="false"><path fill="#74767B" fill-rule="evenodd" d="M3 12c0-4.98 4.02-9 9-9 4.97 0 9 4.02 9 9a9 9 0 0 1-9 9c-4.98 0-9-4.03-9-9m9-5c.35 0 .64.29.64.64v3.71h3.71c.35 0 .65.29.65.65 0 .35-.3.65-.65.65h-3.71v3.7c0 .35-.29.65-.64.65-.36 0-.65-.3-.65-.65v-3.7H7.64c-.35 0-.64-.3-.64-.65 0-.36.29-.65.64-.65h3.71V7.64c0-.35.29-.64.65-.64"/></svg>
